Numix-Circle/48x48/applications/system-config-printer.svg

<?xml version="1.0" encoding="UTF-8" standalone="no"?>
<svg
   xmlns:dc="http://purl.org/dc/elements/1.1/"
   xmlns:cc="http://creativecommons.org/ns#"
   xmlns:rdf="http://www.w3.org/1999/02/22-rdf-syntax-ns#"
   xmlns:svg="http://www.w3.org/2000/svg"
   xmlns="http://www.w3.org/2000/svg"
   xmlns:sodipodi="http://sodipodi.sourceforge.net/DTD/sodipodi-0.dtd"
   xmlns:inkscape="http://www.inkscape.org/namespaces/inkscape"
   width="48"
   height="48"
   viewBox="0 0 48 48"
   id="svg2"
   version="1.1"
   inkscape:version="0.48.4 r9939"
   sodipodi:docname="system-config-printer.svg">
  <metadata
     id="metadata10">
    <rdf:RDF>
      <cc:Work
         rdf:about="">
        <dc:format>image/svg+xml</dc:format>
        <dc:type
           rdf:resource="http://purl.org/dc/dcmitype/StillImage" />
      </cc:Work>
    </rdf:RDF>
  </metadata>
  <defs
     id="defs8" />
  <sodipodi:namedview
     pagecolor="#ffffff"
     bordercolor="#666666"
     borderopacity="1"
     objecttolerance="10"
     gridtolerance="10"
     guidetolerance="10"
     inkscape:pageopacity="0"
     inkscape:pageshadow="2"
     inkscape:window-width="1366"
     inkscape:window-height="742"
     id="namedview6"
     showgrid="false"
     inkscape:zoom="21.085736"
     inkscape:cx="22.509763"
     inkscape:cy="24"
     inkscape:window-x="0"
     inkscape:window-y="26"
     inkscape:window-maximized="1"
     inkscape:current-layer="svg2" />
  <path
     style="fill:#909ea9"
     d="M 11.199219,5.25 C 10.507812,5.324219 9.933594,5.964844 9.9375,6.65625 L 9.9375,20 6.421875,20 C 5.785156,20.074219 5.246094,21.257812 5.25,21.949219 l 0,15.835937 c 0,0.734375 0.632812,1.40625 1.320312,1.40625 l 3.367188,0 0,2.152344 c 0,0.734375 0.664062,1.40625 1.40625,1.40625 l 25.3125,0 c 0.742188,0 1.40625,-0.671875 1.40625,-1.40625 l 0,-2.152344 3.371094,0 c 0.683594,0 1.316406,-0.671875 1.316406,-1.40625 l 0,-15.835937 c 0,-0.734375 -0.632812,-1.919922 -1.316406,-1.919922 l -3.371094,0 0,-10.998047 C 37.125,8.074219 33.332031,6.1875 32.4375,5.25 l -21.09375,0 c -0.05078,0 -0.09766,0 -0.144531,0 z m 1.082031,2.34375 17.578125,0 0,4.6875 5.859375,0 0,7.689453 -23.4375,0 z M 7.59375,22 l 32.8125,0 0,8 -32.8125,0 z m 31.640625,11.375 c 0.519531,0 1.171875,0.652344 1.171875,1.171875 0,0.519531 -0.652344,1.171875 -1.171875,1.171875 -0.519531,0 -1.171875,-0.652344 -1.171875,-1.171875 0,-0.519531 0.652344,-1.171875 1.171875,-1.171875 z M 12.28125,32 l 23.4375,0 0,8.40625 -23.4375,0 z"
     id="path4"
     inkscape:connector-curvature="0"
     sodipodi:nodetypes="cccccsscsssscsssscccscccccccccccccsssssccccc" />
</svg>

<svg width="48" xmlns="http://www.w3.org/2000/svg" height="48" viewBox="0 0 48 48" xmlns:xlink="http://www.w3.org/1999/xlink">
<path style="fill:#909ea9" d="M 11.199219 5.25 C 10.507812 5.324219 9.933594 5.964844 9.9375 6.65625 L 9.9375 20.542969 L 6.570312 20.542969 C 6.523438 20.542969 6.46875 20.542969 6.421875 20.542969 C 5.785156 20.617188 5.246094 21.257812 5.25 21.949219 L 5.25 37.785156 C 5.25 38.519531 5.882812 39.191406 6.570312 39.191406 L 9.9375 39.191406 L 9.9375 41.34375 C 9.9375 42.078125 10.601562 42.75 11.34375 42.75 L 36.65625 42.75 C 37.398438 42.75 38.0625 42.078125 38.0625 41.34375 L 38.0625 39.191406 L 41.433594 39.191406 C 42.117188 39.191406 42.75 38.519531 42.75 37.785156 L 42.75 21.949219 C 42.75 21.214844 42.117188 20.542969 41.433594 20.542969 L 38.0625 20.542969 L 38.0625 9.03125 C 37.125 8.074219 33.332031 6.1875 32.4375 5.25 L 11.34375 5.25 C 11.292969 5.25 11.246094 5.25 11.199219 5.25 Z M 12.28125 7.59375 L 29.859375 7.59375 L 29.859375 12.28125 L 35.71875 12.28125 L 35.71875 20.484375 L 12.28125 20.484375 Z M 7.59375 21.65625 L 40.40625 21.65625 L 40.40625 31.03125 L 7.59375 31.03125 Z M 39.234375 33.375 C 39.753906 33.375 40.40625 34.027344 40.40625 34.546875 C 40.40625 35.066406 39.753906 35.71875 39.234375 35.71875 C 38.714844 35.71875 38.0625 35.066406 38.0625 34.546875 C 38.0625 34.027344 38.714844 33.375 39.234375 33.375 Z M 12.28125 32.203125 L 35.71875 32.203125 L 35.71875 40.40625 L 12.28125 40.40625 Z "/>
</svg>
